incomeartour/img/icons/calendar-dark.svg

<svg width="23" height="26" viewBox="0 0 23 26" fill="none" xmlns="http://www.w3.org/2000/svg">
<path d="M22.3305 5.89108V8.23615H0.317871V5.89108C0.317871 4.38734 1.53708 3.16772 3.04122 3.16772H19.6076C21.1109 3.16772 22.3305 4.38734 22.3305 5.89108Z" fill="black"/>
<path d="M0.317383 10.4287V22.6061C0.317383 24.1095 1.53659 25.3295 3.04073 25.3295H19.6071C21.1108 25.3295 22.33 24.1099 22.33 22.6061V10.4287H0.317383ZM5.91654 21.7H3.19319V18.977H5.91654V21.7ZM5.91654 16.8586H3.19319V14.1357H5.91654V16.8586ZM10.4555 21.7H7.7321V18.977H10.4555V21.7ZM10.4555 16.8586H7.7321V14.1357H10.4555V16.8586ZM14.9944 21.7H12.2706V18.977H14.9944V21.7ZM14.9944 16.8586H12.2706V14.1357H14.9944V16.8586ZM19.5329 21.7H16.8095V18.977H19.5329V21.7ZM19.5329 16.8586H16.8095V14.1357H19.5329V16.8586Z" fill="black"/>
<path d="M5.00844 5.70125C5.76036 5.70125 6.36992 4.57522 6.36992 3.1862C6.36992 1.79717 5.76036 0.671143 5.00844 0.671143C4.25652 0.671143 3.64697 1.79717 3.64697 3.1862C3.64697 4.57522 4.25652 5.70125 5.00844 5.70125Z" fill="black"/>
<path d="M5.0091 5.19865C5.61064 5.19865 6.09828 4.29783 6.09828 3.1866C6.09828 2.07538 5.61064 1.17456 5.0091 1.17456C4.40756 1.17456 3.91992 2.07538 3.91992 3.1866C3.91992 4.29783 4.40756 5.19865 5.0091 5.19865Z" fill="black"/>
<path d="M17.7169 5.70125C18.4689 5.70125 19.0784 4.57522 19.0784 3.1862C19.0784 1.79717 18.4689 0.671143 17.7169 0.671143C16.965 0.671143 16.3555 1.79717 16.3555 3.1862C16.3555 4.57522 16.965 5.70125 17.7169 5.70125Z" fill="black"/>
<path d="M17.7166 4.89543C18.3182 4.89543 18.8058 3.9946 18.8058 2.88338C18.8058 1.77216 18.3182 0.871338 17.7166 0.871338C17.1151 0.871338 16.6274 1.77216 16.6274 2.88338C16.6274 3.9946 17.1151 4.89543 17.7166 4.89543Z" fill="black"/>
</svg>

<svg width="23" height="26" fill="none" xmlns="http://www.w3.org/2000/svg"><path d="M22.33 5.891v2.345H.319V5.891A2.724 2.724 0 013.04 3.168h16.567A2.724 2.724 0 0122.33 5.89zM.317 10.429v12.177a2.724 2.724 0 002.724 2.723h16.566a2.723 2.723 0 002.723-2.723V10.43H.317zm5.6 11.271H3.193v-2.723h2.724V21.7zm0-4.841H3.193v-2.723h2.724v2.723zm4.539 4.841H7.732v-2.723h2.724V21.7zm0-4.841H7.732v-2.723h2.724v2.723zm4.538 4.841h-2.723v-2.723h2.723V21.7zm0-4.841h-2.723v-2.723h2.723v2.723zm4.539 4.841h-2.724v-2.723h2.724V21.7zm0-4.841h-2.724v-2.723h2.724v2.723z" fill="#000"/><path d="M5.008 5.701c.752 0 1.362-1.126 1.362-2.515 0-1.389-.61-2.515-1.362-2.515-.751 0-1.361 1.126-1.361 2.515 0 1.39.61 2.515 1.361 2.515z" fill="#000"/><path d="M5.01 5.199c.6 0 1.088-.901 1.088-2.012 0-1.112-.487-2.012-1.089-2.012-.601 0-1.09.9-1.09 2.012 0 1.11.489 2.012 1.09 2.012zm12.707.502c.752 0 1.361-1.126 1.361-2.515 0-1.389-.61-2.515-1.361-2.515-.752 0-1.361 1.126-1.361 2.515 0 1.39.609 2.515 1.36 2.515z" fill="#000"/><path d="M17.717 4.895c.601 0 1.089-.9 1.089-2.012 0-1.11-.488-2.012-1.09-2.012-.6 0-1.089.901-1.089 2.012 0 1.112.488 2.012 1.09 2.012z" fill="#000"/></svg>
